public/svg/user-w.svg

<svg height="32" viewBox="0 0 25 32" width="25" xmlns="http://www.w3.org/2000/svg"><g fill="#fff" transform="translate(0 .119048)"><path d="m13.0028375 14.8809524c1.923794 0 3.5865423-.6926196 4.9485204-2.0494728 1.3619781-1.3625305 2.0486421-3.02595301 2.0486421-4.95052722s-.6923389-3.58799675-2.0486421-4.95052717c-1.3619781-1.36253041-3.0247264-2.04947283-4.9485204-2.04947283-1.9237941 0-3.5865424.69261963-4.94852052 2.04947283-1.36197811 1.35685321-2.05431698 3.02595296-2.05431698 4.95052717s.69233887 3.58799672 2.04864208 4.95052722c1.36197811 1.3625304 3.03040132 2.0494728 4.95419542 2.0494728zm-3.74543985-10.74695866c1.04418325-1.04460665 2.26996355-1.54987834 3.74543985-1.54987834 1.4754762 0 2.7012565.50527169 3.7454398 1.54987834 1.0441832 1.04460665 1.5492501 2.27088403 1.5492501 3.74695864 0 1.47607462-.5050669 2.70235202-1.5492501 3.74695862-1.0441833 1.0446067-2.2699636 1.5498784-3.7454398 1.5498784-1.4754763 0-2.7012566-.5052717-3.74543985-1.5498784-1.04418322-1.0446066-1.54929687-2.270884-1.54929687-3.74695862-.00562814-1.47607461.50511365-2.70235199 1.54929687-3.74695864z"/><path d="m24.9356424 23.7302157c-.0409548-.6044579-.1228645-1.263317-.2398783-1.9584435-.1228645-.7011712-.2808331-1.3600302-.4680552-1.9644881-.1930728-.6225916-.4563539-1.2451832-.7839925-1.8315074-.3393401-.616547-.737187-1.14847-1.1818395-1.5897242-.4680552-.459388-1.0355722-.8281073-1.6967002-1.1001133-.6552773-.2659615-1.3866136-.4049868-2.1647555-.4049868-.3042359 0-.6026211.1269361-1.170138.5137892-.3510414.2357385-.7605898.5077446-1.2227943.8160181-.3919963.2599169-.9244091.5017-1.5796864.7193049-.6377253.2115602-1.2930026.3203627-1.9307278.3203627-.643576 0-1.2930026-.1088025-1.9307279-.3203627-.65527729-.2176049-1.18769012-.459388-1.57968637-.7193049-.45635385-.3022289-.86590218-.574235-1.22279429-.8160181-.57336766-.3868531-.86590218-.5137892-1.17013808-.5137892-.77814182 0-1.50947812.1390253-2.16475544.4049868-.66112801.272006-1.22864498.6407253-1.69670021 1.1001133-.44465247.4412542-.84249942.9731772-1.18183946 1.5897242-.32763866.5923687-.59091973 1.2089158-.78399251 1.8315074-.18722209.6044579-.34519073 1.2633169-.46805523 1.9644881-.1228645.6951265-.20477416 1.3539856-.23987831 1.9584435-.04095483.5923687-.0585069 1.2089158-.0585069 1.8254628 0 1.6139025.49730868 2.9255761 1.47437398 3.8866641.97706529.9550435 2.25836648 1.4386098 3.81465012 1.4386098h14.4219518c1.5562836 0 2.8375848-.4835663 3.8087994-1.4325652.982916-.961088 1.4802247-2.2727616 1.4802247-3.8866641 0-.6286362-.0234028-1.2391387-.0643576-1.8315074zm-2.62696 4.4004533c-.6377252.6286362-1.4860753.9369098-2.5977065.9369098h-14.4219518c-1.10578048 0-1.95413058-.3082736-2.59770652-.9369098-.62602388-.616547-.93025978-1.4567434-.93025978-2.5749905 0-.5802796.01755208-1.1545146.05265622-1.7045712.03510414-.5379675.11116312-1.1303363.22232623-1.7589724.10531243-.6225917.245729-1.2028712.40954833-1.7347942.15796864-.5077446.36859349-1.0094446.63772525-1.4930109.25157969-.459388.54411421-.8583302.86590218-1.1726483.29838521-.2961844.67868008-.5440121 1.12918324-.7253494.41539902-.1692482.87760356-.2599169 1.38076293-.2780507.0643576.0362675.16967002.0967133.35104142.2176049.36274281.2417831.77814182.5198337 1.23449567.8220627.52071145.3384964 1.18769015.6528145 1.98338403.918776.813246.272006 1.6498947.4110313 2.474842.4110313.8249474 0 1.6557454-.1390253 2.4748421-.4110313.7956939-.2659615 1.4685233-.574235 1.983384-.918776.4680552-.3082735.8776036-.5802796 1.2344957-.8220627.1755207-.1208916.2866838-.1813374.3510414-.2176049.5031594.0120892.9712146.1088025 1.3807629.2780507.4446525.1813373.8249474.429165 1.1291833.7253494.321788.3203627.6143225.7132603.8659022 1.1726483.263281.4835663.4797566.9852663.6377252 1.4930109.1638193.531923.3042359 1.1122025.4095483 1.7347942.1111632.6286361.1813714 1.2210049.2223263 1.7589724.0351041.5500566.0585069 1.118247.0585069 1.6985266-.0058507 1.1242917-.3159373 1.9644881-.9419612 2.5810351z"/></g></svg>

<?xml version="1.0" encoding="UTF-8"?>
<svg width="25px" height="32px" viewBox="0 0 25 32" version="1.1" xmlns="http://www.w3.org/2000/svg" xmlns:xlink="http://www.w3.org/1999/xlink">
    <title>user</title>
    <defs>
        <linearGradient x1="49.7943251%" y1="-2.73292782%" x2="50.6050263%" y2="204.485239%" id="linearGradient-1">
            <stop stop-color="#4DBBED" offset="0%"></stop>
            <stop stop-color="#5C6DDD" offset="100%"></stop>
        </linearGradient>
        <linearGradient x1="49.6132226%" y1="-9.79161919%" x2="50.0812778%" y2="69.2811424%" id="linearGradient-2">
            <stop stop-color="#4DBBED" offset="0%"></stop>
            <stop stop-color="#5C6DDD" offset="100%"></stop>
        </linearGradient>
    </defs>
    <g id="Page-1" stroke="none" stroke-width="1" fill="none" fill-rule="evenodd">
        <g id="Dashboard-user-desktop" transform="translate(-513.000000, -429.000000)" fill-rule="nonzero">
            <g id="user" transform="translate(513.000000, 429.119048)">
                <path d="M13.0028375,14.8809524 C14.9266315,14.8809524 16.5893798,14.1883328 17.9513579,12.8314796 C19.313336,11.4689491 20,9.80552659 20,7.88095238 C20,5.95637817 19.3076611,4.29295563 17.9513579,2.93042521 C16.5893798,1.5678948 14.9266315,0.880952381 13.0028375,0.880952381 C11.0790434,0.880952381 9.4162951,1.57357201 8.05431698,2.93042521 C6.69233887,4.28727842 6,5.95637817 6,7.88095238 C6,9.80552659 6.69233887,11.4689491 8.04864208,12.8314796 C9.41062019,14.19401 11.0790434,14.8809524 13.0028375,14.8809524 Z M9.25739765,4.13399374 C10.3015809,3.08938709 11.5273612,2.5841154 13.0028375,2.5841154 C14.4783137,2.5841154 15.704094,3.08938709 16.7482773,4.13399374 C17.7924605,5.17860039 18.2975274,6.40487777 18.2975274,7.88095238 C18.2975274,9.357027 17.7924605,10.5833044 16.7482773,11.627911 C15.704094,12.6725177 14.4783137,13.1777894 13.0028375,13.1777894 C11.5273612,13.1777894 10.3015809,12.6725177 9.25739765,11.627911 C8.21321443,10.5833044 7.70810078,9.357027 7.70810078,7.88095238 C7.70247264,6.40487777 8.21321443,5.17860039 9.25739765,4.13399374 Z" id="Shape" fill="white"></path>
                <path d="M24.9356424,23.7302157 C24.8946876,23.1257578 24.8127779,22.4668987 24.6957641,21.7717722 C24.5728996,21.070601 24.414931,20.411742 24.2277089,19.8072841 C24.0346361,19.1846925 23.771355,18.5621009 23.4437164,17.9757767 C23.1043763,17.3592297 22.7065294,16.8273067 22.2618769,16.3860525 C21.7938217,15.9266645 21.2263047,15.5579452 20.5651767,15.2859392 C19.9098994,15.0199777 19.1785631,14.8809524 18.4004212,14.8809524 C18.0961853,14.8809524 17.7978001,15.0078885 17.2302832,15.3947416 C16.8792418,15.6304801 16.4696934,15.9024862 16.0074889,16.2107597 C15.6154926,16.4706766 15.0830798,16.7124597 14.4278025,16.9300646 C13.7900772,17.1416248 13.1347999,17.2504273 12.4970747,17.2504273 C11.8534987,17.2504273 11.2040721,17.1416248 10.5663468,16.9300646 C9.91106951,16.7124597 9.37865668,16.4706766 8.98666043,16.2107597 C8.53030658,15.9085308 8.12075825,15.6365247 7.76386614,15.3947416 C7.19049848,15.0078885 6.89796396,14.8809524 6.59372806,14.8809524 C5.81558624,14.8809524 5.08424994,15.0199777 4.42897262,15.2859392 C3.76784461,15.5579452 3.20032764,15.9266645 2.73227241,16.3860525 C2.28761994,16.8273067 1.88977299,17.3592297 1.55043295,17.9757767 C1.22279429,18.5681454 0.959513223,19.1846925 0.76644044,19.8072841 C0.579218348,20.411742 0.421249707,21.070601 0.298385209,21.7717722 C0.175520711,22.4668987 0.0936110461,23.1257578 0.0585069038,23.7302157 C0.0175520711,24.3225844 0,24.9391315 0,25.5556785 C0,27.169581 0.497308682,28.4812546 1.47437398,29.4423426 C2.45143927,30.3973861 3.73274046,30.8809524 5.2890241,30.8809524 L19.7109759,30.8809524 C21.2672595,30.8809524 22.5485607,30.3973861 23.5197753,29.4483872 C24.5026913,28.4872992 25,27.1756256 25,25.5617231 C25,24.9330869 24.9765972,24.3225844 24.9356424,23.7302157 Z M22.3086824,28.130669 C21.6709572,28.7593052 20.8226071,29.0675788 19.7109759,29.0675788 L5.2890241,29.0675788 C4.18324362,29.0675788 3.33489352,28.7593052 2.69131758,28.130669 C2.0652937,27.514122 1.7610578,26.6739256 1.7610578,25.5556785 C1.7610578,24.9753989 1.77860988,24.4011639 1.81371402,23.8511073 C1.84881816,23.3131398 1.92487714,22.720771 2.03604025,22.0921349 C2.14135268,21.4695432 2.28176925,20.8892637 2.44558858,20.3573407 C2.60355722,19.8495961 2.81418207,19.3478961 3.08331383,18.8643298 C3.33489352,18.4049418 3.62742804,18.0059996 3.94921601,17.6916815 C4.24760122,17.3954971 4.62789609,17.1476694 5.07839925,16.9663321 C5.49379827,16.7970839 5.95600281,16.7064152 6.45916218,16.6882814 C6.52351978,16.7245489 6.6288322,16.7849947 6.8102036,16.9058863 C7.17294641,17.1476694 7.58834542,17.42572 8.04469927,17.727949 C8.56541072,18.0664454 9.23238942,18.3807635 10.0280833,18.646725 C10.8413293,18.918731 11.677978,19.0577563 12.5029253,19.0577563 C13.3278727,19.0577563 14.1586707,18.918731 14.9777674,18.646725 C15.7734613,18.3807635 16.4462907,18.07249 16.9611514,17.727949 C17.4292066,17.4196755 17.838755,17.1476694 18.1956471,16.9058863 C18.3711678,16.7849947 18.4823309,16.7245489 18.5466885,16.6882814 C19.0498479,16.7003706 19.5179031,16.7970839 19.9274514,16.9663321 C20.3721039,17.1476694 20.7523988,17.3954971 21.0566347,17.6916815 C21.3784227,18.0120442 21.6709572,18.4049418 21.9225369,18.8643298 C22.1858179,19.3478961 22.4022935,19.8495961 22.5602621,20.3573407 C22.7240814,20.8892637 22.864498,21.4695432 22.9698104,22.0921349 C23.0809736,22.720771 23.1511818,23.3131398 23.1921367,23.8511073 L23.1921367,23.8511073 C23.2272408,24.4011639 23.2506436,24.9693543 23.2506436,25.5496339 C23.2447929,26.6739256 22.9347063,27.514122 22.3086824,28.130669 Z" id="Shape" fill="white"></path>
            </g>
        </g>
    </g>
</svg>
